X:1
T:San Mateo, SMD
T:San Mateo, SMD
T:Ira David Sankey, 1902
T:Public Domain Courtesy of the Cyber Hymnal™
C:Ira David Sankey, 1902
Z:Public Domain
Z:Courtesy of the Cyber Hymnal™
%%score ( 1 2 ) ( 3 4 )
L:1/8
Q:1/4=100
M:3/4
K:Eb
V:1 treble 
V:2 treble 
V:3 bass 
V:4 bass 
V:1
 [EB]2 | [EB]3 [EB] [E=A][EB] | [EG]4 [EB]2 | [Ec]3 [Ec] [Ed][Ec] | [EB]4 [EB]2 | %5
 [DA]3 [DA] [EG][DF] | [EG][DA] [EB]2 [EG]2 | [DF]3 [DB] [E=A][Ec] | [DB]4 [DB]2 | %9
 [EB]3 [EB] [E=A][EB] | [EG]4 [GB]2 | [Ge]3 [EG] [EA][Ec] | [EB]4 [EB]2 | [Ec]3 [Ec] [Ad][Ad] | %14
 [Ge][FB] [EB]2 [FA]2 | [EG]3 [B,E] [CE][DF] | E4 |] %17
V:2
 x2 | x6 | x6 | x6 | x6 | x6 | x6 | x6 | x6 | x6 | x6 | x6 | x6 | x6 | x6 | x6 | E4 |] %17
V:3
 [E,G,]2 | [E,G,]3 [E,G,] [E,^F,][E,G,] | [E,B,]4 [E,G,]2 | [A,,A,]3 [A,,A,] [A,,B,][A,,A,] | %4
 [E,G,]4 [G,B,]2 | [F,B,]3 [F,B,] [B,,B,][B,,B,] | [E,B,][F,B,] [G,B,]2 [E,B,]2 | %7
 [F,B,]3 [F,B,] [F,C][F,=A,] | [B,,B,]4 [B,,A,]2 | [E,G,]3 [E,G,] [E,^F,][E,G,] | [E,B,]4 [E,B,]2 | %11
 [E,B,]3 [_D,B,] [C,A,][A,,A,] | [E,G,]4 [E,G,]2 | A,3 A, [F,B,][F,B,] | %14
 [E,B,][E,A,] [E,G,]2 [A,,C]2 | [B,,B,]3 [B,,G,] [B,,A,][B,,A,] | [E,G,]4 |] %17
V:4
 x2 | x6 | x6 | x6 | x6 | x6 | x6 | x6 | x6 | x6 | x6 | x6 | x6 | A,3 A, x2 | x6 | x6 | x4 |] %17

